!!!COM: Anon.
!!!OCL: Francis James Child
!!!OPR: The English and Scottish Popular Ballads
!!!OVM: Vol. 1
!!!ONB: Ballad No. 47, Tune No. 1
!!!ONM: No. 47
!!!PDT: 1882
!!!YEM: Public domain.
**kern
*M4/4
{4d
=1
8.a
16b-
8.a
16g
4f
4e
=2
2d}
4r
!! Second phrase:
{4cc
=3
4dd
8ee
8ff
4a
4c
=4
2.dd}
!! Third phrase:
{4cc
=5
8dd
8ee
8ff
8dd
4cc
4dd
=6
2.f}
!! Fourth phrase:
{8g
8g
=7
8a
8dd
8a
8g
4f
4e
=8
2.d}
====
*-
!!!OCY: Britain; England
!!!PPP: Boston
!!!ODT: <1882
!!!AFR: folk song
!!!AST: monophony
!!!AMT: simple quadruple
!!!SCA: Child Collection
!!!AIN: vox
!!!EEV: 1.0
!!!RDT: 1987 June
!!!YER: 1994 August 10
!!!VTS: 652652838
